X: 20
T: Sean Bui
Z: ceolachan
S: https://thesession.org/tunes/235#setting49107
R: jig
M: 6/8
L: 1/8
K: Dmaj
|:D2 A AFA B/c/dF E2 D|D3 AFA B3 d3|
D2 A AFA B/c/dF E2 D|d/e/fd c/d/ec|B3 d3:|
|:d/e/fd c/d/eB ABF E2 D|d/e/fd c/d/eA B3 d3|
d/e/fd c/d/eB ABF E2 D|DFA AFA B3 d3:|

